tests/fixtures/XMP_gen_crs.xmp
<?xpacket begin="" id="W5M0MpCehiHzreSzNTczkc9d"?>
<x:xmpmeta xmlns:x="adobe:ns:meta/">
 <rdf:RDF xmlns:rdf="http://www.w3.org/1999/02/22-rdf-syntax-ns#">
  <rdf:Description rdf:about=""
    xmlns:crs="http://ns.adobe.com/camera-raw-settings/1.0/">
   <crs:Version>15.4</crs:Version>
   <crs:RawFileName>IMG_0042.CR3</crs:RawFileName>
   <crs:CropUnit>1</crs:CropUnit>
   <crs:WhiteBalance>As Shot</crs:WhiteBalance>
   <crs:Exposure2012>+0.55</crs:Exposure2012>
  </rdf:Description>
 </rdf:RDF>
</x:xmpmeta>
<?xpacket end="w"?>
